X:1
T:Hohenwerfen, 87.87 D
T:Hohenwerfen, 87.87 D
T:Milo Wilson Nethercutt, 1892
T:Public Domain Courtesy of the Cyber Hymnal™
C:Milo Wilson Nethercutt, 1892
Z:Public Domain
Z:Courtesy of the Cyber Hymnal™
%%score ( 1 2 ) ( 3 4 )
L:1/8
Q:1/4=100
M:4/4
K:F
V:1 treble 
V:2 treble 
V:3 bass 
V:4 bass 
V:1
 [Fc]3 [FA] [FB][FA]F[EG] | [CF]4 [A,C]2 z2 | F3 [FA] [Ac][FA][Ed][Fc] | [EG]6 z2 | %4
 [Fc]3 [FA] [FB][FA]F[EG] | [CF]4 [A,C]2 z2 | [B,D]3 [DG] [CF][CF] [CE]>[B,G] | [A,F]6 z2 | %8
 [CG]3 C [CE][EG][GB][Bd] | [Ac]4 [FA]2 z2 | [CG]3 C [CD][CE][DF][EG] | [FA]6 z2 | %12
 [Fc]3 [FA] [FB][FA]F[EG] | [CF]4 [A,C]2 z2 | [B,D]3 [DG] [CF][CF] [CE]>[B,G] | [A,F]8 |] %16
V:2
 x6 F x | x8 | F3 x5 | x8 | x6 F x | x8 | x8 | x8 | x8 | x8 | x3 C x4 | x8 | x6 F x | x8 | x8 | %15
 x8 |] %16
V:3
 [F,A,]3 [F,C] [F,D][F,C][F,A,][F,B,] | [F,A,]4 F,2 z2 | [F,A,]3 [F,C] [F,F][F,C][C,B,][C,A,] | %3
 [C,C]6 z2 | [F,A,]3 [F,C] [F,D][F,C][F,A,][F,B,] | [F,A,]4 F,2 z2 | %6
 [B,,F,]3 [B,,G,] [C,A,][C,A,] [C,G,]>[C,E,] | F,6 z2 | [C,E,]3 [C,E,] [C,G,][C,G,][C,E,][C,E,] | %9
 F,4 F,2 z2 | [C,E,]3 [C,E,] [C,F,][C,G,][C,A,][C,C] | [F,C]6 z2 | %12
 [F,A,]3 [F,C] [F,D][F,C][F,A,][F,B,] | [F,A,]4 F,2 z2 | %14
 [B,,F,]3 [B,,G,] [C,A,][C,A,] [C,G,]>[C,E,] | F,8 |] %16
V:4
 x8 | x4 F,2 x2 | x8 | x8 | x8 | x4 F,2 x2 | x8 | F,6 x2 | x8 | F,4 F,2 x2 | x8 | x8 | x8 | %13
 x4 F,2 x2 | x8 | F,8 |] %16

